X: 1
T: Gan Ainm
M: 6/8
L: 1/8
R: jig
K: Dmin
|: A |\  
d2 d A2 A | B2 A  G2 F | E D2 A2 A | D3- D2 :|
|: F |\ 
E2 D ^C2 D | E2 F G2 E | F2 G A B2 | A3 d3 |
c2 B A2 G | F2 G A2 B | A G2 c2 c | D3- D2 :|
